X: 61
T: Missa de Sancto Job / Sanctus
N: Derived from Rue1013d-Missa_De_Sancto_Job-Sanctus.krn
C: Pierre de la Rue
%%abc-version 2.0
%%abcx-abcm2ps-target-version 5.9.1 (29 Sep 2008)
%%abc-creator hum2abc beta
%%abcx-conversion-date 2019/02/17 08:01:12
%%abc-edited-by Jesse Rodin
%%abc-edited-by Megan K. Eagen 2013/01/20
%%abcx-initial-encoding-date 2013/01/20/
%%humdrum-veritas 1280609249
%%humdrum-veritas-data 4289167092
%%linebreak <none>
%%barnumbers 0
L: 1/4
M: 3/1
Q: 1/2=120
%%staves [1 2 3 4]
V: 1 clef=treble
V: 2 clef=treble-8
V: 3 clef=treble-8
V: 4 clef=bass
K: F
[V:1] G8B3A | 
[V:2] G8G4 | 
[V:3] z12 | 
[V:4] z12 | 
[V:1] G2F2GF_EDE3D | 
[V:2] B8c4 | 
[V:3] z12 | 
[V:4] z12 | 
[V:1] B,4z2B4AG | 
[V:2] d8d4 | 
[V:3] z12 | 
[V:4] G,8G,4 | 
[V:1] A3Bc2d3Bc2 | 
[V:2] f6d2e4 | 
[V:3] z12 | 
[V:4] F,3G,A,2B,2A,G,A,2 | 
[V:1] F3GA2B4AG | 
[V:2] d4c2d2cBc2 | 
[V:3] z12 | 
[V:4] B,2B,,2C,2B,,2_E,4 | 
[V:1] F4z2F2G2A2 | 
[V:2] d2cBA4z2d2- | 
[V:3] z12 | 
[V:4] D,4z2D,2_E,2D,2 | 
[V:1] B4A3FG2FG | 
[V:2] d2e2f2edc2d2 | 
[V:3] z12 | 
[V:4] G,4F,4z2B,,2 | 
[V:1] A2B3AG4^F2 | 
[V:2] c2d2G4A4 | 
[V:3] z12 | 
[V:4] C,2B,,2_E,4D,4 | 
[V:1] G8z4 | 
[V:2] G2d2e2g4fe | 
[V:3] G12- | 
[V:4] G,,12- | 
[V:1] d4d2B4AG | 
[V:2] d4z2g4fe | 
[V:3] G8G4 | 
[V:4] G,,12 | 
[V:1] F2G4FED2B2 | 
[V:2] d2G3ABcd2G2 | 
[V:3] B12- | 
[V:4] z12 | 
[V:1] B2B3AGFE4 | 
[V:2] d2G3AB4A2 | 
[V:3] B8c4 | 
[V:4] G,,8C,4 | 
[V:1] D4z4z4 | 
[V:2] B8z2A2 | 
[V:3] d12- | 
[V:4] B,,4G,,2B,,C,D,E,F,2 | 
[V:1] z12 | 
[V:2] B2A2B4F4 | 
[V:3] d8c4 | 
[V:4] B,,2F,2G,2B,4A,2 | 
[V:1] z2B4B2B4 | 
[V:2] z2f4f2f2ed | 
[V:3] d12 | 
[V:4] B,4B,,8 | 
[V:1] A2c4BAG4 | 
[V:2] c3BA2GFG3A | 
[V:3] z4z4c4 | 
[V:4] z2F,4F,2E,4 | 
[V:1] F4z4c4 | 
[V:2] B2A4GFG2A2 | 
[V:3] d6B2c4 | 
[V:4] D,2F,4E,D,E,2F,2 | 
[V:1] d4B2c3BAG | 
[V:2] B4G2A2G2c2 | 
[V:3] B4_e8 | 
[V:4] B,,4z2C,2C,4 | 
[V:1] F4B4A2A2- | 
[V:2] A2B4AGF4 | 
[V:3] d6cBd2c2 | 
[V:4] D,4B,,4F,4- | 
[V:1] A2F2GFEDE4 | 
[V:2] z12 | 
[V:3] ABcdc2B4A2 | 
[V:4] F,2_E,D,E,D,C,B,,C,4 | 
[V:1] D3EF2G2D3E | 
[V:2] f4d3ef2g2 | 
[V:3] B12 | 
[V:4] B,,12 | 
[V:1] F2G4F2B4 | 
[V:2] d2e2c2f3ee2 | 
[V:3] z4z4B4 | 
[V:4] z2C,2E,2F,2G,4 | 
[V:1] A4z2A2G2A2- | 
[V:2] f4z2f2e2f2- | 
[V:3] c8c4 | 
[V:4] F,4E,2F,2C,2F,2- | 
[V:1] A2GFE2F2D2B2- | 
[V:2] fecde2d3GG2 | 
[V:3] A8B4 | 
[V:4] F,2E,D,C,2D,2B,,4 | 
[V:1] BAGFG2E2F3G | 
[V:2] z2G4A4F2 | 
[V:3] G3AB2c4B2 | 
[V:4] _E,6D,C,D,4 | 
[V:1] E2D4G4^F2 | 
[V:2] G4d2_e2d4 | 
[V:3] c2G2B2c2A4 | 
[V:4] C,2G,4C,2D,4 | 
[V:1] G2d3cB2A2B2- | 
[V:2] z2d4e2f2d2- | 
[V:3] G4z4d4 | 
[V:4] z2G,4G,2F,2G,2- | 
[V:1] BAGFE2A4GF | 
[V:2] d2e4c2d2B2 | 
[V:3] B2c3BAGF2B2- | 
[V:4] G,F,E,D,C,2F,2D,2_E,2 | 
[V:1] E3FD2G4^F2 | 
[V:2] c4d2c2d4 | 
[V:3] B2A2B2AGA4 | 
[V:4] C,4B,,2_E,2D,4 | 
[V:1] G12 ||  
[V:2] d12 ||  
[V:3] G12 ||  
[V:4] G,,12 ||  
[V:1]  [K:F] [K:clef=treble][M:3/1]z12 | 
[V:2]  [K:F] [K:clef=treble-8][M:3/1]d4_e2d4cB | 
[V:3]  [K:F] [K:clef=treble-8][M:3/1]z12 | 
[V:4]  [K:F] [K:clef=bass][M:3/1]G,8G,4 | 
[V:1] z12 | 
[V:2] A2B3AG2F2G2- | 
[V:3] z12 | 
[V:4] F,2G,4F,E,D,2_E,2- | 
[V:1] z12 | 
[V:2] G2A2B2G4c2- | 
[V:3] z12 | 
[V:4] E,D,C,2B,,2C,2_E,2F,2 | 
[V:1] z12 | 
[V:2] cBB2c2_e4d2- | 
[V:3] z12 | 
[V:4] D,4C,4G,4 | 
[V:1] z12 | 
[V:2] def2e2d3ef2 | 
[V:3] z12 | 
[V:4] F,4G,3A,B,2A,2 | 
[V:1] z12 | 
[V:2] efgfedd4^c2 | 
[V:3] z12 | 
[V:4] G,3A,B,A,G,F,E,4 | 
[V:1] z12 | 
[V:2] d4z4A4 | 
[V:3] z12 | 
[V:4] D,8z4 | 
[V:1] z12 | 
[V:2] A2B4AGA2B2 | 
[V:3] z12 | 
[V:4] D,6D,2D,4 | 
[V:1] z12 | 
[V:2] G2F3GABc2d2 | 
[V:3] z12 | 
[V:4] E,2F,4E,D,E,2F,2 | 
[V:1] z12 | 
[V:2] B2c4BAG2c2 | 
[V:3] z12 | 
[V:4] D,2C,3D,E,F,G,2A,2 | 
[V:1] z12 | 
[V:2] A2B4AGF2B2 | 
[V:3] z12 | 
[V:4] F,2G,4F,E,D,2G,2 | 
[V:1] z12 | 
[V:2] G2c3FB4A2 | 
[V:3] z12 | 
[V:4] E,2F,4E,D,C,4 | 
[V:1] z12 | 
[V:2] B4z2d4d2 | 
[V:3] z12 | 
[V:4] B,,12 | 
[V:1] z12 | 
[V:2] d4c2d3cA2 | 
[V:3] z12 | 
[V:4] z2F,4F,2F,4 | 
[V:1] z12 | 
[V:2] G2B3AF2c3B | 
[V:3] z12 | 
[V:4] G,3F,D,2F,3E,C,2 | 
[V:1] z12 | 
[V:2] G2A3GE2DEFG | 
[V:3] z12 | 
[V:4] B,,2F,3E,C,2D,3C, | 
[V:1] z12 | 
[V:2] A2B3AGFG2cB | 
[V:3] z12 | 
[V:4] A,,2G,,A,,B,,C,D,2_E,3D, | 
[V:1] z12 | 
[V:2] AGA4G4^F2 | 
[V:3] z12 | 
[V:4] C,B,,C,3B,,A,,G,,A,,4 | 
[V:1] z12 ||  
[V:2] G12 ||  
[V:3] z12 ||  
[V:4] G,,12 ||  
[V:1]  [K:F] [K:clef=treble][M:2/1]G8- | 
[V:2]  [K:F] [K:clef=treble-8][M:2/1]d4B2c2 | 
[V:3]  [K:F] [K:clef=treble-8][M:2/1]G6A2 | 
[V:4]  [K:F] [K:clef=bass][M:2/1]z8 | 
[V:1] G8 | 
[V:2] d2_e3d_ef | 
[V:3] B2c2G2c2- | 
[V:4] z8 | 
[V:1] G8 | 
[V:2] g2f2ede2 | 
[V:3] c2BAG4 | 
[V:4] C,8 | 
[V:1] A8- | 
[V:2] f8- | 
[V:3] F4c4- | 
[V:4] F,8 | 
[V:1] A8 | 
[V:2] f8 | 
[V:3] c2A2c2d2- | 
[V:4] F,6D,2 | 
[V:1] A4B4 | 
[V:2] z2c2d2e2 | 
[V:3] d2c3BB2 | 
[V:4] F,2A,2G,4 | 
[V:1] A8 | 
[V:2] f4c4 | 
[V:3] c6BA | 
[V:4] F,4F,4- | 
[V:1] z4A4 | 
[V:2] f6ed | 
[V:3] A8 | 
[V:4] F,2E,D,D,2C,B,, | 
[V:1] c8- | 
[V:2] c3defe2- | 
[V:3] z2A2A2GF | 
[V:4] A,,8- | 
[V:1] c8 | 
[V:2] edcBc4 | 
[V:3] E4A4 | 
[V:4] A,,8 | 
[V:1] A8 | 
[V:2] d8- | 
[V:3] F3GA2A2- | 
[V:4] D,8- | 
[V:1] A8 | 
[V:2] d8 | 
[V:3] AG^FE^F4 | 
[V:4] D,8 | 
[V:1] B6AG | 
[V:2] z4d4- | 
[V:3] G8 | 
[V:4] G,,8 | 
[V:1] F8- | 
[V:2] d2c2d2e2 | 
[V:3] z2A2B2AG | 
[V:4] z4D,4- | 
[V:1] F8 | 
[V:2] f2edc2d2 | 
[V:3] F8 | 
[V:4] D,2C,B,,A,,2B,,2- | 
[V:1] z4B4 | 
[V:2] c4B4 | 
[V:3] z2c2d2cB | 
[V:4] B,,2A,,2B,,2D,2 | 
[V:1] c4c4 | 
[V:2] z4_e4 | 
[V:3] A2B4A2 | 
[V:4] C,3B,,C,4 | 
[V:1] d6c2 | 
[V:2] d4f4- | 
[V:3] B8 | 
[V:4] B,,8- | 
[V:1] B2AGF4 | 
[V:2] f2e2d2cB | 
[V:3] B8 | 
[V:4] B,,8 | 
[V:1] A8 | 
[V:2] A4A4 | 
[V:3] c6d2- | 
[V:4] F,8 | 
[V:1] B8 | 
[V:2] d8- | 
[V:3] dcB4AG | 
[V:4] G,8 | 
[V:1] A8 | 
[V:2] d8 | 
[V:3] F3EF4 | 
[V:4] D,8 | 
[V:1] G4z2G2 | 
[V:2] z2B2B3c | 
[V:3] G8- | 
[V:4] z2G,,2G,,3A,, | 
[V:1] G3AB2c2- | 
[V:2] d2_e2d2_e2- | 
[V:3] G8 | 
[V:4] B,,2C,2G,,2C,2- | 
[V:1] c2BAG4 | 
[V:2] e2d2cBc2 | 
[V:3] G8 | 
[V:4] C,2D,2_E,4 | 
[V:1] F4D2F2- | 
[V:2] d8 | 
[V:3] A8- | 
[V:4] D,8 | 
[V:1] FGABc2d2 | 
[V:2] z8 | 
[V:3] A8 | 
[V:4] F,6D,2 | 
[V:1] c2A4G2 | 
[V:2] z4e4 | 
[V:3] A4B4 | 
[V:4] F,4G,4 | 
[V:1] A4z2A2 | 
[V:2] f6ed | 
[V:3] A8 | 
[V:4] F,4D,4 | 
[V:1] c6BA | 
[V:2] c6d2 | 
[V:3] z4A4 | 
[V:4] A,,8 | 
[V:1] G2A2G2A2- | 
[V:2] e2A2e2f2 | 
[V:3] c8- | 
[V:4] z8 | 
[V:1] A2GFE4 | 
[V:2] F3GA4- | 
[V:3] c8 | 
[V:4] A,,8 | 
[V:1] F8 | 
[V:2] A2F2F4- | 
[V:3] A8 | 
[V:4] D,8 | 
[V:1] F6ED | 
[V:2] F4f4 | 
[V:3] A8 | 
[V:4] D,6C,B,, | 
[V:1] D8 | 
[V:2] f8- | 
[V:3] B6AG | 
[V:4] B,,8- | 
[V:1] z4B4 | 
[V:2] f4d4 | 
[V:3] F8- | 
[V:4] B,,8 | 
[V:1] B2AGF2B2 | 
[V:2] d3ef2d2 | 
[V:3] F8 | 
[V:4] B,,3C,D,2B,,2 | 
[V:1] A2G2B4 | 
[V:2] e4d4 | 
[V:3] z4B4 | 
[V:4] C,4B,,4 | 
[V:1] A2GFG4 | 
[V:2] z4G4 | 
[V:3] c4c4 | 
[V:4] F,4E,4 | 
[V:1] F8 | 
[V:2] A2B4c2 | 
[V:3] d6c2 | 
[V:4] D,8- | 
[V:1] z2F2A2B2 | 
[V:2] d8 | 
[V:3] B2AGF4 | 
[V:4] D,8 | 
[V:1] c3BA2G2 | 
[V:2] c8 | 
[V:3] A8 | 
[V:4] z2F,4E,2 | 
[V:1] F2E2D2G2- | 
[V:2] d8 | 
[V:3] B8 | 
[V:4] D,2C,2B,,2G,,2 | 
[V:1] G2^FEF4 | 
[V:2] d8- | 
[V:3] A8 | 
[V:4] D,4D,4 | 
[V:1] G8 ||  
[V:2] d8 ||  
[V:3] G8 ||  
[V:4] G,,8 ||  
[V:1]  [K:F] [K:clef=treble][M:2/1]z8 | 
[V:2]  [K:F] [K:clef=treble-8][M:2/1]z8 | 
[V:3]  [K:F] [K:clef=treble-8][M:2/1]d6cB | 
[V:4]  [K:F] [K:clef=bass][M:2/1]z8 | 
[V:1] z4G4 | 
[V:2] z8 | 
[V:3] c2BAG4 | 
[V:4] z8 | 
[V:1] A6GF | 
[V:2] z8 | 
[V:3] F8 | 
[V:4] z8 | 
[V:1] G2E2D4 | 
[V:2] z8 | 
[V:3] z4B4 | 
[V:4] z8 | 
[V:1] C8 | 
[V:2] z8 | 
[V:3] c4_e4 | 
[V:4] z8 | 
[V:1] z4F4 | 
[V:2] z8 | 
[V:3] d8 | 
[V:4] z8 | 
[V:1] G4B4 | 
[V:2] z8 | 
[V:3] z4B4 | 
[V:4] z8 | 
[V:1] A8 | 
[V:2] z8 | 
[V:3] c2d4cB | 
[V:4] z8 | 
[V:1] z4F4 | 
[V:2] z8 | 
[V:3] cBAGA4 | 
[V:4] z8 | 
[V:1] G2A4GF | 
[V:2] z8 | 
[V:3] G2c4BA | 
[V:4] z8 | 
[V:1] GFEDE4 | 
[V:2] z8 | 
[V:3] BAd4^c2 | 
[V:4] z8 | 
[V:1] D2F2G2A2- | 
[V:2] z8 | 
[V:3] d8 | 
[V:4] z8 | 
[V:1] A2B4AG | 
[V:2] z8 | 
[V:3] z2G2B2c2 | 
[V:4] z8 | 
[V:1] F3GA2B2- | 
[V:2] z8 | 
[V:3] d2D2F2G2 | 
[V:4] z8 | 
[V:1] B2A3GG2 | 
[V:2] z8 | 
[V:3] A4B4 | 
[V:4] z8 | 
[V:1] A4z2E2- | 
[V:2] z8 | 
[V:3] A8 | 
[V:4] z8 | 
[V:1] EFGEF2ED | 
[V:2] z8 | 
[V:3] z4z2A2- | 
[V:4] z8 | 
[V:1] E4D2G2 | 
[V:2] z8 | 
[V:3] ABcAB2AG | 
[V:4] z8 | 
[V:1] F2EDE2A2- | 
[V:2] z8 | 
[V:3] A4G2c2 | 
[V:4] z8 | 
[V:1] A2G3^FF2 | 
[V:2] z8 | 
[V:3] B2AGA4 | 
[V:4] z8 | 
[V:1] G2B2B2B2 | 
[V:2] z8 | 
[V:3] G4z2d2 | 
[V:4] z8 | 
[V:1] A2B3Ac2- | 
[V:2] z8 | 
[V:3] d2d4c2 | 
[V:4] z8 | 
[V:1] cBAGFEA2- | 
[V:2] z8 | 
[V:3] edcBAGc2- | 
[V:4] z8 | 
[V:1] A2G3^FF2 | 
[V:2] z8 | 
[V:3] cBAGA4 | 
[V:4] z8 | 
[V:1] G8 ||  
[V:2] z8 ||  
[V:3] G8 ||  
[V:4] z8 ||  



